public/images/trading-psychology.svg

<svg width="65" height="65" viewBox="0 0 65 65" fill="none" xmlns="http://www.w3.org/2000/svg">
<path d="M32.5 65C50.4493 65 65 50.4493 65 32.5C65 14.5507 50.4493 0 32.5 0C14.5507 0 0 14.5507 0 32.5C0 50.4493 14.5507 65 32.5 65Z" fill="#E9E9FD"/>
<path d="M51.7002 41.47C50.5002 39.6 46.4702 38.47 42.4802 36.77C40.794 36.1138 39.1449 35.366 37.5402 34.53L32.1002 38.75L34.5102 40.93L32.0002 43.49L29.5902 40.92L32.1502 38.75C31.9302 38.75 27.5102 34.53 27.5102 34.53C25.9055 35.366 24.2564 36.1138 22.5702 36.77C18.5702 38.43 14.5702 39.6 13.3502 41.47C12.2702 43.14 12.6002 51.2 12.6002 51.2H27.6002L32.0002 43.49L36.3402 51.2H52.4502C52.4502 51.2 52.7802 43.14 51.7002 41.47Z" fill="#2B237C"/>
<path d="M32.5002 33.31C34.4306 33.31 36.3176 32.7376 37.9226 31.6652C39.5276 30.5927 40.7786 29.0684 41.5173 27.285C42.256 25.5016 42.4493 23.5392 42.0727 21.646C41.6961 19.7527 40.7666 18.0136 39.4016 16.6487C38.0366 15.2837 36.2976 14.3542 34.4043 13.9776C32.5111 13.601 30.5487 13.7943 28.7652 14.533C26.9818 15.2717 25.4575 16.5227 24.3851 18.1277C23.3126 19.7327 22.7402 21.6197 22.7402 23.55C22.7402 26.1386 23.7685 28.6211 25.5989 30.4514C27.4292 32.2818 29.9117 33.31 32.5002 33.31ZM32.5002 15.38C34.1189 15.3781 35.7018 15.8564 37.0486 16.7545C38.3953 17.6525 39.4453 18.93 40.0656 20.4251C40.686 21.9202 40.8488 23.5657 40.5335 25.1534C40.2182 26.7411 39.439 28.1996 38.2944 29.3442C37.1498 30.4888 35.6913 31.268 34.1036 31.5833C32.5159 31.8987 30.8704 31.7358 29.3753 31.1155C27.8802 30.4951 26.6027 29.4451 25.7046 28.0984C24.8066 26.7516 24.3283 25.1687 24.3302 23.55C24.3302 21.3832 25.191 19.3052 26.7232 17.773C28.2553 16.2408 30.3334 15.38 32.5002 15.38Z" fill="#2B237C"/>
<path d="M33.31 28.4201V30.0601H31.73V28.5501C30.781 28.5185 29.85 28.2832 29 27.8601L29.5 26.0001C30.3086 26.4481 31.2157 26.6886 32.14 26.7001C33.07 26.7001 33.69 26.3401 33.69 25.7001C33.69 25.0601 33.18 24.7001 31.98 24.3101C30.28 23.7401 29.12 22.9401 29.12 21.3901C29.1398 20.6684 29.4252 19.9795 29.9217 19.4554C30.4181 18.9313 31.0905 18.6089 31.81 18.5501V17.0601H33.37V18.4601C34.175 18.4819 34.9674 18.6655 35.7 19.0001L35.22 20.8001C34.5122 20.4335 33.7271 20.2415 32.93 20.2401C31.93 20.2401 31.55 20.7001 31.55 21.1501C31.55 21.6001 32.11 22.0101 33.48 22.5101C35.38 23.1801 36.12 24.0501 36.12 25.5101C36.099 26.2582 35.7992 26.9715 35.2793 27.5099C34.7594 28.0483 34.057 28.373 33.31 28.4201Z" fill="#2B237C"/>
</svg>

<svg xmlns="http://www.w3.org/2000/svg" viewBox="0 0 65 65"><defs><style>.cls-1{fill:#f0f5f7;}.cls-2{fill:#2c3e50;}</style></defs><title>trading-psychology</title><g id="Layer_2" data-name="Layer 2"><g id="icons"><circle class="cls-1" cx="32.5" cy="32.5" r="32.5"/><g id="_3" data-name="3"><path class="cls-2" d="M51.7,41.47c-1.2-1.87-5.23-3-9.22-4.7a49.75,49.75,0,0,1-4.94-2.24L32.1,38.75l2.41,2.18L32,43.49l-2.41-2.57,2.56-2.17c-.22,0-4.64-4.22-4.64-4.22a49.75,49.75,0,0,1-4.94,2.24c-4,1.66-8,2.83-9.22,4.7-1.08,1.67-.75,9.73-.75,9.73H27.6L32,43.49l4.34,7.71H52.45S52.78,43.14,51.7,41.47Z"/><path class="cls-2" d="M32.5,33.31a9.76,9.76,0,1,0-9.76-9.76A9.76,9.76,0,0,0,32.5,33.31Zm0-17.93a8.18,8.18,0,1,1-8.17,8.17A8.17,8.17,0,0,1,32.5,15.38Z"/><path class="cls-2" d="M33.31,28.42v1.64H31.73V28.55A6.62,6.62,0,0,1,29,27.86L29.5,26a5.59,5.59,0,0,0,2.64.7c.93,0,1.55-.36,1.55-1s-.51-1-1.71-1.39c-1.7-.57-2.86-1.37-2.86-2.92a2.93,2.93,0,0,1,2.69-2.84V17.06h1.56v1.4A6,6,0,0,1,35.7,19l-.48,1.8a5,5,0,0,0-2.29-.56c-1,0-1.38.46-1.38.91s.56.86,1.93,1.36c1.9.67,2.64,1.54,2.64,3A3,3,0,0,1,33.31,28.42Z"/></g></g></g></svg>
